_includes/icons/color-pizza.svg

<svg fill="#666" height="50" viewBox="0 0 48 48" width="50" xmlns="http://www.w3.org/2000/svg"><path d="m20 6-14 36 36-14z" fill="#ffd54f"/><path d="m15 32c-2.761719 0-5 2.238281-5 5 0 1.144531.402344 2.191406 1.054688 3.035156l8.902343-3.464843c-.21875-2.554688-2.34375-4.570313-4.957031-4.570313z" fill="#ff3d00"/><path d="m25 18.5c0 2.484375-2.015625 4.5-4.5 4.5s-4.5-2.015625-4.5-4.5 2.015625-4.5 4.5-4.5 4.5 2.015625 4.5 4.5z" fill="#ff3d00"/><path d="m28 20c-1.65625 0-3 1.34375-3 3.003906 0 1.652344 1.34375 2.996094 3 2.996094s3-1.34375 3-2.996094c0-1.660156-1.34375-3.003906-3-3.003906zm0 4.5c-.828125 0-1.5-.671875-1.5-1.5s.671875-1.5 1.5-1.5 1.5.671875 1.5 1.5-.671875 1.5-1.5 1.5z" fill="#3e2723"/><path d="m16 25c-1.65625 0-3 1.34375-3 3.003906 0 1.652344 1.34375 2.996094 3 2.996094s3-1.34375 3-2.996094c0-1.660156-1.34375-3.003906-3-3.003906zm0 4.5c-.828125 0-1.5-.671875-1.5-1.5s.671875-1.5 1.5-1.5 1.5.671875 1.5 1.5-.671875 1.5-1.5 1.5z" fill="#3e2723"/><path d="m29.871094 32.523438c-.386719-1.035157-1.539063-1.558594-2.574219-1.171875-1.035156.386718-6.238281 3.296875-5.851562 4.332031.03125.089844.125.160156.238281.21875l8.234375-3.203125c-.015625-.058594-.023438-.121094-.046875-.175781z" fill="#8d6e63"/><path d="m25.1875 34.277344c-.484375-1.519531-.304687-2.890625-.304687-2.890625.03125-.042969.03125-.097656.027343-.148438.050782-.1875.0625-.390625-.015625-.589843-.191406-.519532-.769531-.78125-1.285156-.585938-.132812.050781-.246094.125-.34375.21875-1.769531 1.113281-2.585937 3.363281-1.820312 5.402344.035156.089844.085937.171875.125.257812l3.703125-1.4375c-.027344-.074218-.058594-.148437-.085938-.226562z" fill="#8d6e63"/><path d="m26 28.59375s-.535156-5.371094-6-3.441406c.589844 5.589844 6 3.441406 6 3.441406z" fill="#689f38"/><path d="m33.59375 25s-5.371094.535156-3.441406 6c5.589844-.589844 3.441406-6 3.441406-6z" fill="#689f38"/><path d="m41.859375 27.1875c-.929687-2.179687-3.078125-8.539062-7.789062-13.25-4.578125-4.582031-10.640625-7.101562-13.328125-7.832031-.839844-.226563-1.027344-.273438-1.355469.5625-.269531.675781-1.03125 2.988281-1.40625 4.070312-.0625.183594-.097656.332032-.121094.46875 8.695313 3.351563 15.609375 10.273438 18.953125 18.976563.023438-.007813.046875-.003906.074219-.011719.691406-.222656 3.46875-1.191406 4.207031-1.4375.734375-.25 1.136719-.671875.765625-1.546875z" fill="#ff9800"/></svg>

<svg xmlns="http://www.w3.org/2000/svg" viewBox="0 0 48 48" width="50" height="50" fill="#666"><path d="M 20 6 L 6 42 L 42 28 Z" fill="#ffd54f"/><path d="M 15 32 C 12.238281 32 10 34.238281 10 37 C 10 38.144531 10.402344 39.191406 11.054688 40.035156 L 19.957031 36.570313 C 19.738281 34.015625 17.613281 32 15 32 Z" fill="#ff3d00"/><path d="M 25 18.5 C 25 20.984375 22.984375 23 20.5 23 C 18.015625 23 16 20.984375 16 18.5 C 16 16.015625 18.015625 14 20.5 14 C 22.984375 14 25 16.015625 25 18.5 Z" fill="#ff3d00"/><path d="M 28 20 C 26.34375 20 25 21.34375 25 23.003906 C 25 24.65625 26.34375 26 28 26 C 29.65625 26 31 24.65625 31 23.003906 C 31 21.34375 29.65625 20 28 20 Z M 28 24.5 C 27.171875 24.5 26.5 23.828125 26.5 23 C 26.5 22.171875 27.171875 21.5 28 21.5 C 28.828125 21.5 29.5 22.171875 29.5 23 C 29.5 23.828125 28.828125 24.5 28 24.5 Z" fill="#3e2723"/><path d="M 16 25 C 14.34375 25 13 26.34375 13 28.003906 C 13 29.65625 14.34375 31 16 31 C 17.65625 31 19 29.65625 19 28.003906 C 19 26.34375 17.65625 25 16 25 Z M 16 29.5 C 15.171875 29.5 14.5 28.828125 14.5 28 C 14.5 27.171875 15.171875 26.5 16 26.5 C 16.828125 26.5 17.5 27.171875 17.5 28 C 17.5 28.828125 16.828125 29.5 16 29.5 Z" fill="#3e2723"/><path d="M 29.871094 32.523438 C 29.484375 31.488281 28.332031 30.964844 27.296875 31.351563 C 26.261719 31.738281 21.058594 34.648438 21.445313 35.683594 C 21.476563 35.773438 21.570313 35.84375 21.683594 35.902344 L 29.917969 32.699219 C 29.902344 32.640625 29.894531 32.578125 29.871094 32.523438 Z" fill="#8d6e63"/><path d="M 25.1875 34.277344 C 24.703125 32.757813 24.882813 31.386719 24.882813 31.386719 C 24.914063 31.34375 24.914063 31.289063 24.910156 31.238281 C 24.960938 31.050781 24.972656 30.847656 24.894531 30.648438 C 24.703125 30.128906 24.125 29.867188 23.609375 30.0625 C 23.476563 30.113281 23.363281 30.1875 23.265625 30.28125 C 21.496094 31.394531 20.679688 33.644531 21.445313 35.683594 C 21.480469 35.773438 21.53125 35.855469 21.570313 35.941406 L 25.273438 34.503906 C 25.246094 34.429688 25.214844 34.355469 25.1875 34.277344 Z" fill="#8d6e63"/><path d="M 26 28.59375 C 26 28.59375 25.464844 23.222656 20 25.152344 C 20.589844 30.742188 26 28.59375 26 28.59375 Z" fill="#689f38"/><path d="M 33.59375 25 C 33.59375 25 28.222656 25.535156 30.152344 31 C 35.742188 30.410156 33.59375 25 33.59375 25 Z" fill="#689f38"/><path d="M 41.859375 27.1875 C 40.929688 25.007813 38.78125 18.648438 34.070313 13.9375 C 29.492188 9.355469 23.429688 6.835938 20.742188 6.105469 C 19.902344 5.878906 19.714844 5.832031 19.386719 6.667969 C 19.117188 7.34375 18.355469 9.65625 17.980469 10.738281 C 17.917969 10.921875 17.882813 11.070313 17.859375 11.207031 C 26.554688 14.558594 33.46875 21.480469 36.8125 30.183594 C 36.835938 30.175781 36.859375 30.179688 36.886719 30.171875 C 37.578125 29.949219 40.355469 28.980469 41.09375 28.734375 C 41.828125 28.484375 42.230469 28.0625 41.859375 27.1875 Z" fill="#ff9800"/></svg>
